!!!COM: Palestrina, Giovanni Perluigi da
!!!OPR: Virtute magna
!!!OTL: Credo
**kern	**kern	**kern	**kern
*Ibass	*Itenor	*Icalto	*Icant
!Bassus	!Tenor	!Altus	!Cantus
*clefF4	*clefGv2	*clefG2	*clefG2
*k[]	*k[]	*k[]	*k[]
*G:mix	*G:mix	*G:mix	*G:mix
*M4/2	*M4/2	*M4/2	*M4/2
=1	=1	=1	=1
0r	0r	0r	1g
.	.	.	1dd
=2	=2	=2	=2
0r	0r	1r	1dd
.	.	1c	1ee
=3	=3	=3	=3
0r	0r	1g	1.dd
.	.	1g	.
.	.	.	2b
=4	=4	=4	=4
0r	0r	1a	1cc
.	.	[1g	2.b
.	.	.	4cc
=5	=5	=5	=5
0r	0r	2g]	2dd
.	.	2e	2.ee
.	.	1f	.
.	.	.	4dd
.	.	.	2dd
=6	=6	=6	=6
0r	0r	2.e	2cc
.	.	.	4b
.	.	4f	4a
.	.	2g	2b
.	.	[2a	[2cc
=7	=7	=7	=7
0r	1G	4a]	4cc]
.	.	4g	4b
.	.	1g	4b
.	.	.	8a
.	.	.	8g
.	1d	.	[1a
.	.	4f	.
.	.	4e	.
=8	=8	=8	=8
1r	1d	1f#	2a]
.	.	.	2b
1C	1e	[1g	1cc
=9	=9	=9	=9
1G	1.d	1g]	0dd
1G	.	1r	.
.	2B	.	.
=10	=10	=10	=10
1A	1c	2r	0r
.	.	2c	.
[1G	2.B	1g	.
.	4c	.	.
=11	=11	=11	=11
2G]	2d	1g	0r
2E	2e	.	.
1F	2d	1a	.
.	[2c	.	.
=12	=12	=12	=12
2.E	2c]	1.g	0r
.	4B	.	.
4F	4A	.	.
2G	2B	.	.
2A	2c	2e	.
=13	=13	=13	=13
4D	1d	1f	1r
4E	.	.	.
4F	.	.	.
4G	.	.	.
4A	1c	1e	2r
4B	.	.	.
[2c	.	.	[2g
=14	=14	=14	=14
2c]	1G	2.d	2g]
2B	.	.	2g
.	.	4e	.
2A	1r	2f	2a
2G	.	2g	2b
=15	=15	=15	=15
0A	1.c	2f	2cc
.	.	4e	1cc
.	.	4d	.
.	.	2e	.
.	2c	2f#	4b
.	.	.	4a
=16	=16	=16	=16
1G	2d	1g	1b
.	2e	.	.
1r	2f	1d	2.a
.	[2f	.	.
.	.	.	4b
=17	=17	=17	=17
1r	2f]	0r	2cc
.	4e	.	1dd
.	4d	.	.
1A	2e	.	.
.	2e	.	2cc#
=18	=18	=18	=18
2B	0d	0r	2dd
2.d	.	.	2a
.	.	.	2b
4c	.	.	.
4B	.	.	[2dd
4A	.	.	.
=19	=19	=19	=19
2G	0r	1d	4dd]
.	.	.	4cc
2B	.	.	4b
.	.	.	4a
2c	.	2e	2.g
2c	.	[2g	.
.	.	.	4a
=20	=20	=20	=20
1G	2r	4g]	2b
.	.	4f	.
.	2G	4e	2b
.	.	4d	.
2r	2A	4c	2.cc
.	.	4d	.
2C	[2c	[2e	.
.	.	.	8b
.	.	.	8a
=21	=21	=21	=21
2E	4c]	2e]	2g
.	4B	.	.
1F	4A	2c	1a
.	4G	.	.
.	2F	2c	.
2E	2G	2c	[2g
=22	=22	=22	=22
2D	2A	1d	2g]
2D	2A	.	2f#
1G	[1G	2r	2.g
.	.	[2d	.
.	.	.	4a
=23	=23	=23	=23
2r	1G]	2d]	4b
.	.	.	4cc
1G	.	2d	1dd
.	1r	2e	.
2A	.	2f	2cc
=24	=24	=24	=24
2B	0r	1.g	1b
2c	.	.	.
1d	.	.	[1a
.	.	4f	.
.	.	4e	.
=25	=25	=25	=25
2.D	2r	2.f	1a]
.	1d	.	.
4E	.	4e	.
2F	.	4d	1r
.	.	4c	.
[2G	2d	[2B-	.
=26	=26	=26	=26
4G]	2e	4B-]	0r
4F	.	4A	.
2D	2f	1d	.
2E	[1g	.	.
2E	.	2c#	.
=27	=27	=27	=27
1D	2g]	0d	2r
.	4f	.	1a
.	4e	.	.
2r	2f	.	.
[2d	2f	.	2a
=28	=28	=28	=28
2d]	1e	1r	2b
2c	.	.	2cc
2B	1d	2r	2dd
4A	.	[2g	4cc
4G	.	.	4b
=29	=29	=29	=29
1A	1r	2g]	2cc
.	.	2f#	2cc
1G	2r	1g	1b
.	[2g	.	.
=30	=30	=30	=30
2r	2g]	2.d	1a
1d	2f	.	.
.	.	4e	.
.	2d	2f	1r
2c#	2e	[2e	.
=31	=31	=31	=31
1d	1f	4e]	0a
.	.	4d	.
.	.	1d	.
1A	1e	.	.
.	.	2c#	.
=32	=32	=32	=32
1B-	2r	1d	1g
.	2.d	.	.
1A	.	1e	[1a
.	4d	.	.
.	2c	.	.
=33	=33	=33	=33
2F	1f	2r	0a]
2D	.	2.d	.
1A	1e	.	.
.	.	4d	.
.	.	2c	.
=34	=34	=34	=34
1r	4A	2f	0a
.	4B	.	.
.	4c	2e	.
.	4d	.	.
2r	1e	4A	.
.	.	4B	.
[2A	.	4c	.
.	.	4d	.
=35	=35	=35	=35
4A]	1c	4e	1r
4A	.	4A	.
2F	.	1a	.
1B-	2.d	.	2r
.	.	2g	[2dd
.	4e	.	.
=36	=36	=36	=36
1A	2f	1.a	4dd]
.	.	.	4dd
.	2e	.	2cc
4D	2d	.	1ff
4E	.	.	.
4F	4A	2a	.
4G	4B	.	.
=37	=37	=37	=37
4A	4c	[0a	1ee
4B	4d	.	.
4c	4e	.	.
4A	4c	.	.
2d	2f	.	4a
.	.	.	4b
2c	4e	.	4cc
.	4d	.	4dd
=38	=38	=38	=38
2.A	2.c	0a]	4ee
.	.	.	4cc
.	.	.	2ff
4B	4d	.	.
2c	2e	.	2ee
2d	2f	.	[2dd
=39	=39	=39	=39
0A	1.e	0a	2dd]
.	.	.	4cc
.	.	.	4b
.	.	.	2cc#
.	2e	.	2cc#
=40	=40	=40	=40
2r	2d	0r	0dd
1d	1f	.	.
2d	2f	.	.
=41	=41	=41	=41
2c	1e	2r	1r
2c	.	1g	.
4B	1d	.	2r
4A	.	.	.
4B	.	2g	[2dd
4c	.	.	.
=42	=42	=42	=42
1d	0r	2f	2dd]
.	.	2f	2dd
2A	.	4e	2cc
.	.	4d	.
2c	.	4e	2cc
.	.	4f	.
=43	=43	=43	=43
1G	0r	2.g	4b
.	.	.	4a
.	.	.	4b
.	.	4f	4cc
1r	.	4d	2.dd
.	.	4e	.
.	.	[2f	.
.	.	.	4cc
=44	=44	=44	=44
1r	0r	2f]	4a
.	.	.	4b
.	.	4e	1cc
.	.	4d	.
2r	.	1e	.
[2G	.	.	4b
.	.	.	4a
=45	=45	=45	=45
2G]	2r	1d	1b
2G	1d	.	.
2F	.	1r	1a
2F	2d	.	.
=46	=46	=46	=46
4E	2c	0r	0r
4D	.	.	.
4E	2c	.	.
4F	.	.	.
2.G	4B	.	.
.	4A	.	.
.	4B	.	.
4F	4c	.	.
=47	=47	=47	=47
4D	4d	0r	0r
4E	4c	.	.
4F	4A	.	.
4G	4B	.	.
2A	4c	.	.
.	4d	.	.
[2G	[2e	.	.
=48	=48	=48	=48
4G]	4e]	1r	0r
4F	4d	.	.
4E	1d	.	.
4D	.	.	.
2E	.	1g	.
2E	2c#	.	.
=49	=49	=49	=49
1D	2d	2f	1r
.	2d	2f	.
1r	1G	1b-	1dd
=50	=50	=50	=50
0r	1r	0a	2cc
.	.	.	2cc
.	1d	.	1ff
=51	=51	=51	=51
1A	2c	1r	1ee
.	2c	.	.
2F	2.f	2r	1r
2F	.	[2a	.
.	4e	.	.
=52	=52	=52	=52
2B-	2d	2a]	2r
2B-	2d	2g	1dd
1A	1e	1a	.
.	.	.	2cc
=53	=53	=53	=53
1r	2r	1a	1ff
.	1d	.	.
1A	.	1r	1ee
.	2c	.	.
=54	=54	=54	=54
2A	2c	1a	2r
2F	2.f	.	2a
1B-	.	2d	2a
.	4e	.	.
.	[2d	2d	2g
=55	=55	=55	=55
0A	2d]	2f	0a
.	4c	4e	.
.	4B	4d	.
.	1c#	1e	.
=56	=56	=56	=56
2r	1d	1f#	0a
1d	.	.	.
.	1r	2r	.
2d	.	[2a	.
=57	=57	=57	=57
2c	0r	2a]	0r
2d	.	2a	.
2B-	.	2g	.
2A	.	2a	.
=58	=58	=58	=58
1.d	0r	2f	0r
.	.	2d	.
.	.	[1a	.
4c	.	.	.
4B-	.	.	.
=59	=59	=59	=59
2A	0r	2a]	0r
2B	.	4g	.
.	.	4f	.
2c	.	2e	.
2A	.	2f#	.
=60	=60	=60	=60
2G	0r	2g	0r
2A	.	2e	.
2B-	.	2d	.
[2A	.	2e	.
=61	=61	=61	=61
2A]	1r	2f	0r
4G	.	2.e	.
4F	.	.	.
2.G	2r	.	.
.	.	4d	.
.	2d	[2d	.
4F	.	.	.
=62	=62	=62	=62
1E	2e	2d]	1r
.	2.g	2c#	.
1D	.	1d	2r
.	4f	.	.
.	2f	.	2a
=63	=63	=63	=63
0r	2e	2G	2b
.	2d	2B	2.dd
.	2f	1A	.
.	.	.	4cc
.	2e	.	2cc
=64	=64	=64	=64
0r	2d	0r	2b
.	4c	.	2a
.	4B	.	.
.	2A	.	2.cc
.	[2c	.	.
.	.	.	4b
=65	=65	=65	=65
0r	2c]	2r	2a
.	2B	2d	1g
.	1A	2e	.
.	.	2c	2f#
=66	=66	=66	=66
2r	0G	2d	1g
2G	.	1e	.
2A	.	.	1r
2F	.	4d	.
.	.	4c	.
=67	=67	=67	=67
2.G	0r	4B	1dd
.	.	4c	.
.	.	2.d	.
4F	.	.	.
2E	.	.	2ee
.	.	4c	.
2F	.	[2c	2cc
=68	=68	=68	=68
2D	1d	2c]	1dd
2D	.	2B	.
1C	[1e	2c	2.g
.	.	[2g	.
.	.	.	4a
=69	=69	=69	=69
1r	2e]	2g]	2b
.	2c	2a	1cc
2r	1d	2f	.
2G	.	2g	2b
=70	=70	=70	=70
2A	2c	2e	1a
2F	2A	2f	.
1G	4B	1d	[1g
.	4c	.	.
.	4d	.	.
.	4B	.	.
=71	=71	=71	=71
2E	4c	1e	0g]
.	4d	.	.
4C	2.e	.	.
4D	.	.	.
4E	.	1r	.
4F	4d	.	.
2G	4B	.	.
.	4c	.	.
=72	=72	=72	=72
2.F	4d	2r	0r
.	4c	.	.
.	1c	2c	.
4E	.	.	.
1D	.	1f	.
.	2B	.	.
=73	=73	=73	=73
1C	1c	2e	2r
.	.	2e	2cc
1r	1r	4d	1ff
.	.	4e	.
.	.	4f	.
.	.	4g	.
=74	=74	=74	=74
1r	1c	4a	2ee
.	.	4b	.
.	.	1cc	2ee
1G	1g	.	1dd
.	.	2b	.
=75	=75	=75	=75
1c	2e	2g	1cc
.	2e	2.a	.
2B	1d	.	2r
.	.	4g	.
2B	.	[2g	2g
=76	=76	=76	=76
1A	2.c	2g]	1cc
.	.	2f#	.
.	4d	.	.
2G	4e	1g	2b
.	4f#	.	.
2G	[2g	.	2b
=77	=77	=77	=77
1d	2g]	0r	1a
.	2f#	.	.
1G	1g	.	1b
=78	=78	=78	=78
1r	1r	0g	1r
1G	1d	.	1b
=79	=79	=79	=79
1G	1d	1g	1b
1G	1B	1g	1dd
=80	=80	=80	=80
1A	1c	1e	1cc
1D	1d	1f#	1a
=81	=81	=81	=81
1G	1d	1g	1b
1r	1r	1r	1r
=82	=82	=82	=82
1G	1d	1g	1b
[1F	2A	[1a	[1cc
.	2A	.	.
=83	=83	=83	=83
2F]	2.c	2a]	2cc]
2F	.	2a	2b
.	4d	.	.
1E	2e	1g	1b
.	[2c	.	.
=84	=84	=84	=84
0D	2c]	1f	0cc
.	4B	.	.
.	4A	.	.
.	1B	1d	.
=85	=85	=85	=85
1C	1c	1g	1ee
1r	1r	1r	1r
=86	=86	=86	=86
1.C	1.e	1.g	1.cc
2C	2e	2g	2cc
=87	=87	=87	=87
1F	1f	1a	1cc
1F	1f	1a	1cc
=88	=88	=88	=88
1.G	1.d	1.g	1.b-
2D	2d	2f	2a
=89	=89	=89	=89
1D	2d	2f	1a
.	1f	1d	.
1r	.	.	1r
.	2e	2c#	.
=90	=90	=90	=90
2r	1f	1d	[0a
1d	.	.	.
.	1e	1A	.
2c#	.	.	.
=91	=91	=91	=91
1d	2r	2r	0a]
.	1d	1f	.
1A	.	.	.
.	2c#	2e	.
=92	=92	=92	=92
1r	2d	2f	1a
.	2c	2e	.
2r	1B-	1d	1g
[2d	.	.	.
=93	=93	=93	=93
2d]	1A	1e	0a
2c#	.	.	.
1d	2r	2r	.
.	[2f	[2a	.
=94	=94	=94	=94
0A	2f]	2a]	0cc
.	4e	4g	.
.	4d	4f	.
.	2.c	2e	.
.	.	2f#	.
.	4d	.	.
=95	=95	=95	=95
1G	2e	2.g	1b
.	2d	.	.
.	.	4f	.
1C	2.c	2e	2a
.	.	2e	[2g
.	4B	.	.
=96	=96	=96	=96
0D	1.A	[0d	2g]
.	.	.	4f
.	.	.	4e
.	.	.	1f#
.	2A	.	.
=97	=97	=97	=97
[0G	[0G	1d_	[0g
.	.	1d_	.
=98	=98	=98	=98
0G]	0G]	0d]	0g]
*	*	*	*-
!! Crucifixus
*Itenor	*Icalto	*Icant
!Tenor	!Altus	!Cantus
*clefGv2	*clefG2	*clefG2
*k[]	*k[]	*k[]
*G:mix	*G:mix	*G:mix
*M4/2	*M4/2	*M4/2
=99	=99	=99
0r	1.d	1r
.	.	[1a
.	2d	.
=100	=100	=100
0r	1f	2a]
.	.	2a
.	1e	1cc
=101	=101	=101
0r	2r	1b
.	1g	.
.	.	2r
.	2g	[2dd
=102	=102	=102
0r	2f	2dd]
.	2f	2dd
.	4e	2cc
.	4d	.
.	4e	2cc
.	4f	.
=103	=103	=103
1r	1.g	4b
.	.	4a
.	.	4b
.	.	4cc
[1d	.	1dd
.	4f	.
.	4e	.
=104	=104	=104
2d]	2.f	2a
2d	.	2.a
.	4g	.
1f	1a	.
.	.	4b
.	.	4cc
.	.	4dd
=105	=105	=105
1e	2.g	4ee
.	.	4ff
.	.	1gg
.	4a	.
2r	2b-	.
[2d	4a	4ff
.	4g	4ee
=106	=106	=106
2d]	2a	2ff
2d	2f	2dd
2c	2g	2ee
2c	[2a	2cc
=107	=107	=107
4B	2a]	2.dd
4A	.	.
4B	1g	.
4c	.	8cc
.	.	8b
1d	.	1a
.	2f#	.
=108	=108	=108
2.G	[0g	1b
4A	.	.
4B	.	1r
4G	.	.
[2c	.	.
=109	=109	=109
2c]	1g]	1dd
2B	.	.
1c	1r	2ee
.	.	2ee
=110	=110	=110
1G	1g	2b
.	.	2dd
1r	2a	2.cc
.	2a	.
.	.	4b
=111	=111	=111
1r	2e	2g
.	2g	2b
1d	2.f	1a
.	4e	.
=112	=112	=112
2e	4c	1g
.	4d	.
2e	4e	.
.	4f	.
2B	2g	2r
2d	2f	2dd
=113	=113	=113
2.c	2.e	2ee
.	.	2ee
4B	4f	.
2G	1g	2b
2B	.	2dd
=114	=114	=114
4A	1c	2.cc
4B	.	.
4c	.	.
4d	.	4b
4e	1r	2g
4f	.	.
[2g	.	2b
=115	=115	=115
2g]	1r	1a
2f	.	.
1e	2r	1g
.	[2g	.
=116	=116	=116
1d	2g]	2r
.	2f	1dd
1r	2d	.
.	2e	2cc
=117	=117	=117
0r	2f	2a
.	4e	2b
.	4d	.
.	4e	2cc
.	4f	.
.	4g	4b
.	4e	4cc
=118	=118	=118
1r	4f	4dd
.	4g	4b
.	2a	4cc
.	.	4dd
2r	2.g	4ee
.	.	4dd
2G	.	[2dd
.	4f	.
=119	=119	=119
2A	1e	2dd]
2A	.	2cc#
1B	[1d	1dd
=120	=120	=120
1G	1d]	1r
2.c	1r	1g
4B	.	.
=121	=121	=121
2c	0r	2a
2.d	.	2a
.	.	2b
8c	.	.
8d	.	.
2e	.	2g
=122	=122	=122
2c	0r	2.cc
2.f	.	.
.	.	4b
.	.	2cc
4e	.	.
2f	.	[2dd
=123	=123	=123
2g	1r	2dd]
2.a	.	4cc
.	.	4b
.	1c	2.cc
4g	.	.
[2g	.	.
.	.	4b
=124	=124	=124
2g]	2d	1a
2f#	2d	.
[1g	1e	1g
=125	=125	=125
1g]	1c	2r
.	.	2.cc
1r	2.f	.
.	.	4b
.	.	2cc
.	4e	.
=126	=126	=126
1r	2f	2.dd
.	2.g	.
.	.	4cc
1G	.	4b
.	4f	4a
.	2d	2b
=127	=127	=127
1c	4e	1g
.	4d	.
.	4e	.
.	4f	.
2B	2g	1r
2A	2f	.
=128	=128	=128
2.c	1e	2r
.	.	2g
4d	.	.
2e	1r	1cc
2f	.	.
=129	=129	=129
1d	1r	2b
.	.	2a
1c	2r	[1cc
.	2c	.
=130	=130	=130
0r	1f	2cc]
.	.	2dd
.	2e	2ee
.	2d	[2ff
=131	=131	=131
0r	2.f	2ff]
.	.	4ee
.	4g	4dd
.	2a	2cc
.	2b-	[2dd
=132	=132	=132
1r	2g	2dd]
.	2.a	2cc
1G	.	1b
.	4g	.
.	[2g	.
=133	=133	=133
1d	2g]	1a
.	2f#	.
1e	1g	2r
.	.	2g
=134	=134	=134
2d	0r	1dd
2B	.	.
1c	.	1ee
=135	=135	=135
2B	1r	2dd
2G	.	2b
4A	1c	1cc
4B	.	.
4c	.	.
4d	.	.
=136	=136	=136
4e	1g	1b
4f	.	.
1g	.	.
.	1a	1r
2f#	.	.
=137	=137	=137
1g	2g	2r
.	2e	2g
1r	1f	4a
.	.	4b
.	.	4cc
.	.	4dd
=138	=138	=138
0r	2e	4ee
.	.	4ff
.	2c	4gg
.	.	4ee
.	4d	2.ff
.	4e	.
.	4f	.
.	4g	4ee
=139	=139	=139
1r	4a	2cc
.	4b	.
.	1cc	2ee
2r	.	[1dd
2g	4b	.
.	4a	.
=140	=140	=140
2g	2b	1dd]
2f#	2a	.
[1g	2b	1r
.	2g	.
=141	=141	=141
2g]	1a	2r
2f	.	2dd
2d	1r	2dd
2e	.	2cc#
=142	=142	=142
2f	0r	1.dd
2.g	.	.
4f	.	.
4e	.	2cc
4d	.	.
=143	=143	=143
2c	2r	2a
2B	2g	2b
1A	2g	2.cc
.	2f#	.
.	.	8b
.	.	8a
=144	=144	=144
1G	1.g	1b
2r	.	[1a
2d	2f	.
=145	=145	=145
2d	2d	0a]
2c#	2e	.
[1d	[1f	.
=146	=146	=146
2d]	2f]	0r
2c	4e	.
.	4d	.
2A	4e	.
.	4f#	.
2B	[2g	.
=147	=147	=147
2c	2g]	2r
2d	2f#	2dd
1e	2r	2dd
.	2g	2cc#
=148	=148	=148
1d	2g	1.dd
.	2f#	.
2r	2g	.
2g	2c	2cc
=149	=149	=149
2g	1d	1a
2f#	.	.
[1g	2.G	2.b
.	4A	4cc
=150	=150	=150
2g]	4B	4dd
.	4c	4ee
2f	4d	1dd
.	4e	.
2d	4f	.
.	4g	.
2f	[2a	[2cc
=151	=151	=151
1e	4a]	4cc]
.	4g	4b
.	1g	2g
1d	.	1a
.	2f#	.
=152	=152	=152
[0G	[0g	[0b
=153	=153	=153
0G]	0g]	0b]
*-	*-	*-
!! Et iterum
**kern	**kern	**kern	**kern
*Ibass	*Itenor	*Icalto	*Icant
!Bassus	!Tenor	!Altus	!Cantus
*clefF4	*clefGv2	*clefG2	*clefG2
*k[]	*k[]	*k[]	*k[]
*G:mix	*G:mix	*G:mix	*G:mix
*M4/2	*M4/2	*M4/2	*M4/2
=154	=154	=154	=154
0r	0r	0r	1g
.	.	.	2.dd
.	.	.	4dd
=155	=155	=155	=155
0r	0r	1r	2dd
.	.	.	2dd
.	.	1c	2cc
.	.	.	2cc
=156	=156	=156	=156
0r	0r	2.g	2b
.	.	.	1dd
.	.	4g	.
.	.	2g	.
.	.	2g	4cc
.	.	.	4b
=157	=157	=157	=157
0r	0r	2f	4a
.	.	.	4g
.	.	2f	4a
.	.	.	4b
.	.	2e	2cc
.	.	[2g	[2b
=158	=158	=158	=158
0r	1r	2g]	2b]
.	.	4f	4a
.	.	4e	4g
.	1G	2d	1b
.	.	[2g	.
=159	=159	=159	=159
0r	2.d	2g]	0a
.	.	4f	.
.	4d	4e	.
.	2d	2.f	.
.	2d	.	.
.	.	8e	.
.	.	8d	.
=160	=160	=160	=160
1C	2c	1e	0r
.	2c	.	.
2.G	2B	2.d	.
.	[2d	.	.
4G	.	4c	.
=161	=161	=161	=161
2G	2d]	2B	0r
2G	4c	1e	.
.	4B	.	.
2F	4A	.	.
.	4G	.	.
2F	4A	2d	.
.	4B	.	.
=162	=162	=162	=162
2E	2c	1e	1g
1G	4B	.	.
.	4A	.	.
.	2G	1r	2b
4F	[2c	.	2cc
4E	.	.	.
=163	=163	=163	=163
4D	2c]	1r	1dd
4C	.	.	.
2D	2B	.	.
1C	2.c	2r	[1ee
.	.	2c	.
.	4B	.	.
=164	=164	=164	=164
0r	1A	2e	2ee]
.	.	2f	4dd
.	.	.	4cc
.	1G	1g	2b
.	.	.	2dd
=165	=165	=165	=165
0r	0r	1.a	4cc
.	.	.	4b
.	.	.	4cc
.	.	.	4dd
.	.	.	4ee
.	.	.	4ff#
.	.	4g	[2gg
.	.	4f	.
=166	=166	=166	=166
1c	0r	2e	4gg]
.	.	.	4ff
.	.	2g	1ee
2A	.	1f	.
2B	.	.	2dd
=167	=167	=167	=167
2.c	2r	1e	1ee
.	2g	.	.
4B	.	.	.
2c	2e	1r	1r
2d	2f#	.	.
=168	=168	=168	=168
2B	2.g	0r	1r
2.c	.	.	.
.	4f	.	.
.	4e	.	1cc
4B	4d	.	.
4A	2e	.	.
4G	.	.	.
=169	=169	=169	=169
2F	2f	2r	2a
2G	1e	2g	2b
1A	.	2e	[1cc
.	4d	2f#	.
.	4c	.	.
=170	=170	=170	=170
1G	1d	1.g	2cc]
.	.	.	4b
.	.	.	4a
[1D	2r	.	2b
.	[2d	4f	2a
.	.	4e	.
=171	=171	=171	=171
1D]	2d]	2.f	[0a
.	2d	.	.
.	.	4e	.
1r	1f	2d	.
.	.	2d	.
=172	=172	=172	=172
1.A	1.e	1c	1a]
.	.	1r	1r
2A	2c	.	.
=173	=173	=173	=173
1c	2e	0r	1r
.	2e	.	.
2B	4d	.	2r
.	4c	.	.
2G	4B	.	[2g
.	4A	.	.
=174	=174	=174	=174
2B	2G	0r	2g]
2c	1g	.	2g
1A	.	.	2a
.	2f#	.	2a
=175	=175	=175	=175
0G	1g	2r	2b
.	.	1d	2.dd
.	1r	.	.
.	.	.	4cc
.	.	2d	4b
.	.	.	4a
=176	=176	=176	=176
0r	1r	1e	2g
.	.	.	2b
.	2r	1f#	2a
.	2d	.	2a
=177	=177	=177	=177
2r	2e	1g	1g
1G	2.g	.	.
.	.	1r	1r
.	4f	.	.
2G	4e	.	.
.	4d	.	.
=178	=178	=178	=178
2A	2c	1r	0r
2A	2e	.	.
1B	1d	2r	.
.	.	2d	.
=179	=179	=179	=179
0c	1c	2e	1r
.	.	2.g	.
.	1r	.	[1g
.	.	4f	.
.	.	4e	.
.	.	4d	.
=180	=180	=180	=180
0r	2r	2c	2g]
.	1g	2e	2g
.	.	1d	1a
.	2f#	.	.
=181	=181	=181	=181
2r	1g	1G	1b
2G	.	.	.
2A	2f	2r	[1cc
[2c	[2e	2c	.
=182	=182	=182	=182
4c]	4e]	2e	2cc]
4B	4d	.	.
4A	4c	1f	2cc
4G	4B	.	.
2F	2A	.	1cc
[2A	[2c	4e	.
.	.	4d	.
=183	=183	=183	=183
2A]	2c]	2c	2a
4G	4B	2d	2b
4F	4A	.	.
2E	2G	2e	1cc
2F	[2c	2c	.
=184	=184	=184	=184
1D	2c]	1f	1dd
.	2B	.	.
1C	[1c	1e	[1g
=185	=185	=185	=185
2r	1c]	2r	1g]
1c	.	1e	.
.	1r	.	1r
2B	.	2d	.
=186	=186	=186	=186
1c	1r	1e	2r
.	.	.	1g
2B	2r	1d	.
2G	[2g	.	2g
=187	=187	=187	=187
2A	2g]	1c	1cc
2A	2f#	.	.
1G	1g	[1d	1b
=188	=188	=188	=188
2r	2f	2d]	0a
1d	2d	2d	.
.	2e	1A	.
2c	2e	.	.
=189	=189	=189	=189
2B	2d	0r	0r
2c	1g	.	.
1A	.	.	.
.	2f	.	.
=190	=190	=190	=190
2G	2e	0r	0r
2A	2f	.	.
2B	1d	.	.
2G	.	.	.
=191	=191	=191	=191
2A	2c	0r	0r
2B	2d	.	.
1c	2e	.	.
.	2c	.	.
=192	=192	=192	=192
2B	2d	0r	0r
1A	2e	.	.
.	2f	.	.
4G	[2e	.	.
4F	.	.	.
=193	=193	=193	=193
2.G	4e]	1r	0r
.	4d	.	.
.	1d	.	.
4F	.	.	.
1E	.	2r	.
.	2c#	[2g	.
=194	=194	=194	=194
1D	1d	2g]	1r
.	.	2f	.
1r	1G	2b-	2r
.	.	2b-	[2dd
=195	=195	=195	=195
0r	1r	1a	2dd]
.	.	.	2cc
.	2r	4d	2ff
.	.	4e	.
.	[2d	4f	2ff
.	.	4g	.
=196	=196	=196	=196
0r	2d]	4a	1ee
.	.	4b	.
.	2c	2.cc	.
.	2f	.	4a
.	.	4b	4b
.	2f	2a	4cc
.	.	.	4dd
=197	=197	=197	=197
0r	2e	2g	2ee
.	1d	2.a	1ff
.	.	4g	.
.	2c#	2e	[2ee
=198	=198	=198	=198
1r	1d	1f	2ee]
.	.	.	2dd
2r	2A	1e	1ee
2A	2A	.	.
=199	=199	=199	=199
2A	2c	0r	0r
2B	2d	.	.
1c	1e	.	.
=200	=200	=200	=200
2A	2c	1r	2r
2d	2f	.	2a
2c	2e	2r	2a
2B	2d	2d	2b
=201	=201	=201	=201
1A	4c	2e	2.cc
.	4d	.	.
.	4e	2e	.
.	4c	.	4b
1r	1d	2.f	2a
.	.	.	2dd
.	.	4f	.
=202	=202	=202	=202
1r	1r	2e	2cc
.	.	2g	2b-
1D	2r	2.f	[1a
.	2d	.	.
.	.	8e	.
.	.	8d	.
=203	=203	=203	=203
2A	2d	2e	1a]
2A	2c#	2e	.
2F	2d	1d	1r
2G	2B	.	.
=204	=204	=204	=204
2A	2c	0r	1r
2B	2d	.	.
1c	1e	.	2r
.	.	.	[2cc
=205	=205	=205	=205
1G	1d	2r	2cc]
.	.	1g	2b
1r	1r	.	2g
.	.	2f	2a
=206	=206	=206	=206
1r	2r	2d	1b
.	1g	2e	.
2r	.	2c	1a
[2d	2f	2d	.
=207	=207	=207	=207
2d]	2d	2f	0a
2c#	2e	2.e	.
1d	1f	.	.
.	.	4d	.
.	.	[2d	.
=208	=208	=208	=208
1A	1e	2d]	0a
.	.	2c	.
1r	2d	2f	.
.	2c	2e	.
=209	=209	=209	=209
0r	1B-	1d	1g
.	1A	1e	1a
=210	=210	=210	=210
0F	0f	0a	1r
.	.	.	[1cc
=211	=211	=211	=211
1C	1e	1g	2cc]
.	.	.	2cc
1G	1d	1g	1b
=212	=212	=212	=212
1A	1c	1e	0a
2.D	2r	1r	.
.	[2A	.	.
4E	.	.	.
=213	=213	=213	=213
2F	2A]	2.d	0r
2G	2B	.	.
.	.	4e	.
2A	2c	2f	.
2G	2d	2g	.
=214	=214	=214	=214
2c	2e	2a	1r
2B	2d	2g	.
[1A	[1e	2.cc	2.a
.	.	4b	4b
=215	=215	=215	=215
2A]	2e]	2a	2cc
2B	2d	4g	2dd
.	.	4f	.
2c	2g	2e	2ee
[2d	[2f	4a	2dd
.	.	4g	.
=216	=216	=216	=216
4d]	4f]	4a	1ff
4c	4g	4b	.
4A	2a	2.cc	.
4B	.	.	.
2c	2g	.	2ee
.	.	4b	.
2d	2f	4a	[2dd
.	.	4g	.
=217	=217	=217	=217
1A	0e	0a	2dd]
.	.	.	4cc
.	.	.	4b
1A	.	.	1cc#
=218	=218	=218	=218
1B-	1d	1f	0dd
1G	2r	1b-	.
.	[2g	.	.
=219	=219	=219	=219
2D	2g]	0a	0r
2d	2f	.	.
2c	2e	.	.
2B-	2d	.	.
=220	=220	=220	=220
1A	2f	0r	0r
.	2.e	.	.
2F	.	.	.
.	4d	.	.
2G	[2d	.	.
=221	=221	=221	=221
2E	2d]	2r	1r
2E	2c#	1g	.
1D	1d	.	2r
.	.	2f	2dd
=222	=222	=222	=222
0r	2r	2e	2cc
.	1d	2d	2b-
.	.	2f	1a
.	2c#	[2e	.
=223	=223	=223	=223
0r	2d	4e]	2f
.	.	4d	.
.	2G	1d	2g
.	1A	.	2e
.	.	2c#	2e
=224	=224	=224	=224
2r	1d	2d	1d
2.d	.	1f	.
.	1r	.	2r
4c	.	.	.
2B	.	2g	2dd
=225	=225	=225	=225
2A	1r	2a	2cc
2G	.	4d	2b
.	.	4e	.
1d	2r	4f	2a
.	.	4g	.
.	2d	4a	2ff
.	.	4f	.
=226	=226	=226	=226
1r	2c	1g	2ee
.	2B	.	1dd
2r	1A	2f	.
2A	.	[2e	2cc
=227	=227	=227	=227
2G	1d	4e]	2b
.	.	4d	.
2F	.	1d	2a
1E	2G	.	2.g
.	[2g	2c#	.
.	.	.	4a
=228	=228	=228	=228
1D	2g]	1d	2b
.	2f	.	2a
1C	1e	2r	1cc
.	.	[2g	.
=229	=229	=229	=229
1D	2.d	2g]	2b
.	.	2f	2.a
.	4c	.	.
2E	2B	1e	.
.	.	.	4g
2C	2c	.	[2g
=230	=230	=230	=230
0D	0A	[0d	2g]
.	.	.	4f
.	.	.	4e
.	.	.	1f#
=231	=231	=231	=231
0G	1G	1d]	2g
.	.	.	2.dd
.	1r	2.g	.
.	.	.	8cc
.	.	.	8dd
.	.	.	2ee
.	.	8f	.
.	.	8g	.
=232	=232	=232	=232
1r	2r	2a	2cc
.	2.d	2f	2dd
2.G	.	1g	2.b
.	8c	.	.
.	8d	.	.
.	2e	.	.
8F	.	.	8a
8G	.	.	8b
=233	=233	=233	=233
2A	2c	0r	2cc
2F	2.d	.	2a
2G	.	.	[1b
.	4c	.	.
[2d	4B	.	.
.	4A	.	.
=234	=234	=234	=234
4d]	1G	2.g	1b]
8c	.	.	.
8d	.	.	.
2e	.	.	.
.	.	8f	.
.	.	8g	.
2c	1r	2a	2r
2d	.	2f	[2dd
=235	=235	=235	=235
2B	2.g	2g	4dd]
.	.	.	8cc
.	.	.	8dd
2c	.	1e	2ee
.	8f	.	.
.	8g	.	.
2A	2a	.	2cc
2D	2f	[2d	2dd
=236	=236	=236	=236
2.G	2g	4d]	2.b
.	.	8c	.
.	.	8d	.
.	2.e	2e	.
8F	.	.	8a
8G	.	.	8b
2A	.	2c	2cc
.	8d	.	.
.	8e	.	.
2F	2f	2d	2a
=237	=237	=237	=237
2G	2d	2.B	2b
2.E	2e	.	2.g
.	.	8A	.
.	.	8B	.
.	2.c	2c	.
8D	.	.	8f
8E	.	.	8g
2F	.	[2A	2a
.	8B	.	.
.	8c	.	.
=238	=238	=238	=238
2D	2d	2A]	2f
2E	2B	2.e	2g
1C	1c	.	2e
.	.	8d	.
.	.	8c	.
.	.	2e	[2g
=239	=239	=239	=239
[0D	2B	[0d	2g]
.	4A	.	4f
.	4G	.	4e
.	[1A	.	[1f#
=240	=240	=240	=240
1D]	1A]	1d]	1f#]
1r	1r	1r	1r
=241	=241	=241	=241
0C	0c	0e	0g
=242	=242	=242	=242
[0G	[0B	[0d	[0g
=243	=243	=243	=243
0G]	0B]	0d]	0g]
==	==	==	==
*-	*-	*-	*-
!!!CDT: 1525/^1526/-1594/2/2
!!!OCY: Italia
!!!AGN: Mass (Parody)
!!!AST: renaissance, vocal
!!!ASW: Motet 1532 (Lasson)
!!!PWK: Masses, Book I
!!!RNB: Cadence finals: D
!!!YOR: Le Opere Complete, v. 1, p. 62
!!!YOO: Rome, Italy: Fratelli Scalera
!!!END: 1992//
!!!EED: John Miller
!!!YEC: Copyright 2000, John Miller
!!!YEN: United States of America
!!!YEM: Rights to all derivative electronic formats reserved.
!!!YEM: Refer to licensing agreement for further details.
!!!YEM: This file must be accompanied by the licensing agreement.
!!!YEM: A copy of the licensing agreement may be found at http://www.music-cog.ohio-state.edu/HumdrumDatabases/Palestrina/license.txt
!!!EMD: converted to Humdrum by Bret Aarden
